X:1
T:もののけ姫
T:La princesa Mononoke, tema principal
T:Autor: Joe Hisaishi. Arranjament per D.R. Perquè la pugui tocar un servidor (principiant)
L:1/8
Q:1/4=84
M:4/4
K:C
V:1 bass nm="Violoncello" snm="Vlc."
V:1
 vA,,uE,E,D, E,3 E, | vG,(D, D,4) z2 | vA,,E,E,D, E,3 E, | G,6 (uE,G,) | A,A,A,A, A,3 A, | %5
 G,2 D,2 E,4 | D,D,D,E, D, A,,2 D, | E,4 z4 | vA,,E,E,D, (E,3 G,) | D,6 z2 | vA,,E,E,D, E,3 E, | %11
 G,6 (E,G,) | A,A,A,A, A,3 A, | G,2 D,2 E,4 | D,D,D,E, D, A,,2 C, | C,4 z4 | A,A,A,B, A,3 A, | %17
 !2!C2 B,2 E,4 | D,2 G,2 E,2 D,E, | B,B,B,!2!C B,3 E, | !2!C2 B,2 E,2 E,E, | A,2 G,!2!F, G,4 | %22
 z2 (E,G,) A,2 !2!C2 | B, (E,2 G,) A,4- | A,2 (E,G,) A,2 !2!C2 | B, (E,2 G,) A,4- | A,4 z4 |] %27

